X:3
T:Ballydesmond, The
C:Traditional
R:polka
K:A
M:4/4
L:1/8
|: E>A AB| cd e2| G>F GA| GF ED|
! E>A AB| cd ef| ge dB| A2 A2:| ! |:
a2 ab| ag ef| g2 ga| ge de|
! ea ab| ag ef| ge dB| A2 A2:|
%%footer JamBuddy 2025 - No rights reserved, public domain

